X: 3601
T: Portnacraig
P: The Brown Trout
C:Muriel A. Johnstone
R:Reel (8x32)
B:RSCDS 36-1
Z:Anselm Lingnau <anselm@strathspey.org>
M:4/4
L:1/8
K:D
(3ABc|:"D"d2 "G"B2 "D"AFED|"A"CDEF E2A2|"Bm"d2cd "E7"Bfed|"A"c2A2A2 (3ABc|
       "D"d2 "G"B2 "D"AFED|"A"CDEF E2A2|"Bm"f2da "A"gecA|"D"d2f2d2 de|
[1 "D"fdd2 Add2|"G"Bdd2 "A7"cdeg|"D"fdd2 Add2|"A7"gecA "D"d2 de|
   "D"fdd2 Add2|"G"Bdd2 "A"cdeg|"D"fdd2 "Em"bged|"A7"cABc "D"d2 (3ABc:|
[2 "D"fdd2 Add2|"G"Bdd2 "A7"cdeg|"D"fdd2 Add2|"A7"gecA "D"d3 e|
   "Bm"d2b2 "D"afed|"A"cdef e2A2|"G"B2ef "A7"gecA|"D"d2f2d2|]
%%center Book36/3601-Portnacraig-AL.abc

%%sep 2 1 500
%%sep 1 1 500

